X: 242
T: Ben Ağlar İdim Her Gece
C: Tanburî Ali Efendi
O: Turkey
F: http://compmusic.upf.edu/node/140
N: evic--agirsemai--aksaksemai--ben_aglar_idim--tanburi_ali_efendi
N: makam= evic
N: form= agirsemai
N: usul= aksaksemai = 10/8
M: 10/8
L: 1/16
K: C _1/4B ^f ^c 
Q: 1/4=108
%%MIDI tuningsystem comma53
f4 ^3/4e2f4f4gf gagf  | f4 gf^3/4e3fed c^Bc2 d2ce  | 
w:  Ah  ben_ ağ lar  i  |  *  dim  *  her  *  ge *  *  *  ce   | 
d4 d2^3/4e3d(3gfe f2(3agf g2a2  | \
w:  *  ol  yâ *  rim  *  *  *  u  | 
(3gf^3/4ef2 g2e3dgf {a}gff4z2  | 
w:  *  *  *  *  *  *  *  yur *  *  *  *  du    | 
g3f ^3/4efg3fgf gaag =f=edf  | ed=c_2/4B c2d4c3/2e/ dcB2 c2BA  | 
w:  Ah  *  ketm_ *  ey *  le *  *  di ğim   |  *  *  *  *  nâ le le *  *  *  rim   | 
A3/2_2/4B/AG F^3/4EF3GA2 _1/4B2(3d=cB c2d2  | \
w:  *  *  *  *  hal *  ka  *  du *  yur  | 
(3=cBAB2 c2A3/2B/ ABAG F^3/4EF4z2  | 
w:  *  *  *  *  *  *  *  *  *  *  *  *  *  du    | 
g3f ^3/4efg3fgf gaag =f=edf  | ed=c_2/4B c2d4c3/2e/ dcB2 c2BA  | 
w:  Ah  *  ketm_ *  ey *  le *  *  di ğim   |  *  *  *  *  nâ le le *  *  *  rim   | 
A3/2_2/4B/AG F^3/4EF3GA2 _1/4B2(3d=cB c2d2  | \
w:  *  *  *  *  hal *  ka  *  du *  yur  | 
(3=cBAB2 c2A3/2B/ ABAG F^3/4EF4z2  | 
w:  *  *  *  *  *  *  *  *  *  *  *  *  *  du    | 
A3G FGA4A4d4=cB  | BAAG F^3/4EF3GAG AGA4_2/4B=c  | 
w:  Ah  *  tir  *  ye  le  le   |  lel  *  *  *  le  *  le  *  lel  *  *  *  li   | 
A4 e=fed d=cd4df edc_2/4B  | =c4 dedc _2/4BAB4cB A3G  | 
w:  *  ye  *  lel  *  *  *  lel  le  *  le    |  *  Te  *  le  *  *  *  lel  le  *  le  le   | 
g2=fe d=c(3c_2/4BA BdcB BAA4Bc  | \
w:  le  *  *  le  *  le  *  *  *  *  lel  *  *  *  li    | 
d4 e=fed d=cd4ef edc_2/4B  | 
w:  *  Te  *  re  *  *  *  lel  le  *  le   | 
=c4 dedc _2/4BAB4c=B A2GF  | G3F d2d=c BAAG GFF4z2  | 
w:  lel  le  *  le  *  *  *  lel  le  *  lel   |  le  *  le  le  *  *  *  lel  *  *  *  li    | 
f4 a2a2 gfg3/2a/ gf=c'6  | =c'b2a a{b}gg3/2a/ g^3/4ffe fee4z2  | 
w:  Ya nı ma  *  *  gel *  *  *  mez  |  *  *  *  *  *  *  *  *  *  *  *  *  *  *  sin   | 
e2ee =f2d3/2e/ dccB {c}Bcd4cB  | e4 dcc3BBA {c}BAA4Bc  | 
w:  ha *  *  li mi  *  *  *  sor *  *  *  *  maz  |  *  *  *  *  *  *  *  *  *  *  sın   SAZ  | 
A4 e2=c3_2/4BA4BA B2c2  | A2GF d2=c3/2d/ c{d}_2/4BA4BA B2c2  | 
w:  *  Hoş  şim *  di  di  *  *  ve  |  fa  *  *  hoş  şim *  *  *  *  di  pür  *  *  ce  | 
d2{e}d{e}=c cBBA GAB4d4cB  | =c4 BAB2 AGAG F^3/4EFG ABcB  | 
w:  fa  *  *  *  *  *  *  *  *  *  *  *  hey   |  hey    | 
A4 e2=c3_2/4BA4BA B2c2  | A2GF d2=c3/2d/ c{d}_2/4BA4BA B2c2  | 
w:  *  Hoş  şim *  di  di  *  *  ve  |  fa  *  *  hoş  şim *  *  *  *  di  pür  *  *  ce  | 
d2{e}d{e}=c cBBA GAB4d4cB  | =c4 BAB2 AGAG F^3/4EF4z2  | 
w:  fa  *  *  *  *  *  *  *  *  *  *  *  hey   |  hey    | 
g3f ^3/4efg3fgf gaag =f=edf  | ed=c_2/4B c2d4c3/2e/ d{e}cB2 c2BA  | 
w:  Ah  *  ketm_ *  ey *  le *  *  di ğim   |  *  *  *  *  nâ le le *  *  *  *  rim   | 
A3/2_2/4B/AG F^3/4EF3GA2 _1/4B2(3d=cB c2d2  | \
w:  *  *  *  *  hal *  ka  *  du *  yur  | 
(3=cBAB2 c2A3/2B/ ABAG F^3/4EF4z2  | 
w:  *  *  *  *  *  *  *  *  *  *  *  *  *  du    | 
g3f ^3/4efg3fgf gaag =f=edf  | ed=c_2/4B c2d4c3/2e/ d{e}cB2 c2BA  | 
w:  Ah  *  ketm_ *  ey *  le *  *  di ğim   |  *  *  *  *  nâ le le *  *  *  *  rim   | 
A3/2_2/4B/AG F^3/4EF3GA2 _1/4B2(3d=cB c2d2  | \
w:  *  *  *  *  hal *  ka  *  du *  yur  | 
(3=cBAB2 c2A3/2B/ ABAG F^3/4EF4z2  | 
w:  *  *  *  *  *  *  *  *  *  *  *  *  *  du    | 
c4 =B2c4c4cd ^3/4ef{g}ed  | c3/2d/c=B ^AGA3BAG F^3/4EFG ABAc  | 
w:  Ah  bir  nim  ni ge  |  *  *  *  *  hi  *  nâz  *  i *  *  *  le   | 
=B4 c2d3cd2 B2g4gf  | f^3/4eed dcdc B2Bg fef4z2  | 
w:  *  gam  et *  ti  *  gö  |  *  *  *  *  *  *  *  *  *  rün *  *  *  ce    | 
g3f ^3/4efg3fgf gaag =f=edf  | ed=c_2/4B c2d4c3/2e/ dcB2 c2BA  | 
w:  Ah  *  ketm_ *  ey *  le *  *  di ğim   |  *  *  *  *  nâ le le *  *  *  rim   | 
A3/2_2/4B/AG F^3/4EF3GA2 _1/4B2(3d=cB c2d2  | \
w:  *  *  *  *  hal *  ka  *  du *  yur  | 
(3=cBAB2 c2A3/2B/ ABAG F^3/4EF4z2  | 
w:  *  *  *  *  *  *  *  *  *  *  *  *  *  du    | 
g3f ^3/4efg3fgf gaag =f=edf  | ed=c_2/4B c2d4c3/2e/ dcB2 c2BA  | 
w:  Ah  *  ketm_ *  ey *  le *  *  di ğim   |  *  *  *  *  nâ le le *  *  *  rim   | 
A3/2_2/4B/AG F^3/4EF3GA2 _1/4B2(3d=cB c2d2  | \
w:  *  *  *  *  hal *  ka  *  du *  yur  | 
(3=cBAB2 c2A3/2B/ ABAG F^3/4EF4z2  | 
w:  *  *  *  *  *  *  *  *  *  *  *  *  *  du    | 
A3G FGA4A4d4=cB  | BAAG F^3/4EF3GAG AGA4_2/4B=c  | 
w:  Ah  *  tir  *  ye  le  le   |  lel  *  *  *  le  *  le  *  lel  *  *  *  li   | 
A4 e=fed d=cd4df edc_2/4B  | =c4 dedc _2/4BAB4cB A3G  | 
w:  *  ye  *  lel  *  *  *  lel  le  *  le    |  *  Te  *  le  *  *  *  lel  le  *  le  le   | 
g2=fe d=c(3c_2/4BA BdcB BAA4Bc  | \
w:  le  *  *  le  *  le  *  *  *  *  lel  *  *  *  li    | 
d4 e=fed d=cd4ef edc_2/4B  | 
w:  *  Te  *  re  *  *  *  lel  le  *  le   | 
=c4 dedc _2/4BAB4c=B A2GF  | G3F d2d=c BAAG GFF4z2  | 
w:  lel  le  *  le  *  *  *  lel  le  *  lel   |  le  *  le  le  *  *  *  lel  *  *  *  li    | 
f4 a2a2 gfg3/2a/ gf=c'6  | =c'b2a a{b}gg3/2a/ g^3/4ffe fee4z2  | 
w:  Ya nı ma  *  *  gel *  *  *  mez  |  *  *  *  *  *  *  *  *  *  *  *  *  *  *  sin   | 
e2ee =f2d3/2e/ dccB {c}Bcd4cB  | e4 dcc3BBA {c}BAA4Bc  | 
w:  ha *  *  li mi  *  *  *  sor *  *  *  *  maz  |  *  *  *  *  *  *  *  *  *  *  sın   SAZ  | 
A4 e2=c3_2/4BA4BA B2c2  | A2GF d2=c3/2d/ c{d}_2/4BA4BA B2c2  | 
w:  *  Hoş  şim *  di  di  *  *  ve  |  fa  *  *  hoş  şim *  *  *  *  di  pür  *  *  ce  | 
d2{e}d{e}=c cBBA GAB4d4cB  | =c4 BAB2 AGAG F^3/4EFG ABcB  | 
w:  fa  *  *  *  *  *  *  *  *  *  *  *  hey   |  hey    | 
A4 e2=c3_2/4BA4BA B2c2  | A2GF d2=c3/2d/ c{d}_2/4BA4BA B2c2  | 
w:  *  Hoş  şim *  di  di  *  *  ve  |  fa  *  *  hoş  şim *  *  *  *  di  pür  *  *  ce  | 
d2{e}d{e}=c cBBA GAB4d4cB  | =c4 BAB2 AGAG F^3/4EF4z2  | 
w:  fa  *  *  *  *  *  *  *  *  *  *  *  hey   |  hey    | 
g3f ^3/4efg3fgf gaag =f=edf  | ed=c_2/4B c2d4c3/2e/ d{e}cB2 c2BA  | 
w:  Ah  *  ketm_ *  ey *  le *  *  di ğim   |  *  *  *  *  nâ le le *  *  *  *  rim   | 
A3/2_2/4B/AG F^3/4EF3GA2 _1/4B2(3d=cB c2d2  | \
w:  *  *  *  *  hal *  ka  *  du *  yur  | 
(3=cBAB2 c2A3/2B/ ABAG F^3/4EF4z2  | 
w:  *  *  *  *  *  *  *  *  *  *  *  *  *  du    | 
g3f ^3/4efg3fgf gaag =f=edf  | ed=c_2/4B c2d4c3/2e/ d{e}cB2 c2BA  | 
w:  Ah  *  ketm_ *  ey *  le *  *  di ğim   |  *  *  *  *  nâ le le *  *  *  *  rim   | 
A3/2_2/4B/AG F^3/4EF3GA2 _1/4B2(3d=cB c2d2  | \
w:  *  *  *  *  hal *  ka  *  du *  yur  | 
(3=cBAB2 c2A3/2B/ ABAG F^3/4EF4z2  | 
w:  *  *  *  *  *  *  *  *  *  *  *  *  *  du    | 
|


